assets/svg/gallery.svg

<svg fill="none" height="24" viewBox="0 0 24 24" width="24" xmlns="http://www.w3.org/2000/svg"><path d="m4.27209 20.7279 6.59651-6.5965c.396-.396.5941-.5941.8224-.6682.2008-.0653.4172-.0653.618 0 .2283.0741.4264.2722.8224.6682l6.5525 6.5525m-5.6839-5.6839 2.8686-2.8686c.396-.396.5941-.5941.8224-.6682.2008-.0653.4172-.0653.618 0 .2283.0741.4264.2722.8224.6682l2.8686 2.8686m-12-6c0 1.1046-.89543 2-2 2s-2-.8954-2-2c0-1.10457.89543-2 2-2s2 .89543 2 2zm-3.2 12h10.4c1.6802 0 2.5202 0 3.162-.327.5645-.2876 1.0234-.7465 1.311-1.311.327-.6418.327-1.4818.327-3.162v-8.4c0-1.68016 0-2.52024-.327-3.16197-.2876-.56449-.7465-1.02343-1.311-1.31105-.6418-.32698-1.4818-.32698-3.162-.32698h-10.4c-1.68016 0-2.52024 0-3.16197.32698-.56449.28762-1.02343.74656-1.31105 1.31105-.32698.64173-.32698 1.48181-.32698 3.16197v8.4c0 1.6802 0 2.5202.32698 3.162.28762.5645.74656 1.0234 1.31105 1.311.64173.327 1.48181.327 3.16197.327z" stroke="#000" stroke-linecap="round" stroke-linejoin="round" stroke-width="2"/></svg>

<svg width="24" height="24" viewBox="0 0 24 24" fill="none" xmlns="http://www.w3.org/2000/svg">
<path d="M4.27209 20.7279L10.8686 14.1314C11.2646 13.7354 11.4627 13.5373 11.691 13.4632C11.8918 13.3979 12.1082 13.3979 12.309 13.4632C12.5373 13.5373 12.7354 13.7354 13.1314 14.1314L19.6839 20.6839M14 15L16.8686 12.1314C17.2646 11.7354 17.4627 11.5373 17.691 11.4632C17.8918 11.3979 18.1082 11.3979 18.309 11.4632C18.5373 11.5373 18.7354 11.7354 19.1314 12.1314L22 15M10 9C10 10.1046 9.10457 11 8 11C6.89543 11 6 10.1046 6 9C6 7.89543 6.89543 7 8 7C9.10457 7 10 7.89543 10 9ZM6.8 21H17.2C18.8802 21 19.7202 21 20.362 20.673C20.9265 20.3854 21.3854 19.9265 21.673 19.362C22 18.7202 22 17.8802 22 16.2V7.8C22 6.11984 22 5.27976 21.673 4.63803C21.3854 4.07354 20.9265 3.6146 20.362 3.32698C19.7202 3 18.8802 3 17.2 3H6.8C5.11984 3 4.27976 3 3.63803 3.32698C3.07354 3.6146 2.6146 4.07354 2.32698 4.63803C2 5.27976 2 6.11984 2 7.8V16.2C2 17.8802 2 18.7202 2.32698 19.362C2.6146 19.9265 3.07354 20.3854 3.63803 20.673C4.27976 21 5.11984 21 6.8 21Z" stroke="black" stroke-width="2" stroke-linecap="round" stroke-linejoin="round"/>
</svg>
